X:95
T:Procrastination Hornpipe
M:C|
L:1/8
C: Paul Gitlitz 1984
R:Hornpipe 
B:Giblitz Fancy, 141 Brand New Old Time Fiddle Tunes Vol. 2
N: I'll tell you about it later.
K:G
EGc|"Am"AEAB cBcd|egfd e2(3def|"G"gbag "D"fagf|"Em"ed^cd ef(3gfe|!
"Am"AEAB cBcd|egfd e2(3def|"G"gfga gfed|({cd}"Am"c2)A2A:|! 
|:z(3Ace|"Am"a^gab a2(3Ace|~a2aba3f|"G"~g3e"D"~f3d|"Em"ed^cd ef(3gfe|!
"Am"a^gab a2(3Ace|~a2aba3f|"G"gfga gfed|({cd}"Am"c2)A2A:|]
